X: 1
T:Carnival of Venice
M:3/4
L:1/4
Q:200
R:waltz
D:Conal O'Grada
Z:Gerry Strong
K:D
A|:B2 A|G2 F/2G/2|A2 G|E2 E/2F/2|G2 A|B>A G|FAd|F2 A|d2 A|G2 F/2G/2|A2 G
|E2
E/2F/2|G2 A|B2 A|1D3-|D2 A:|2D3-|
D> A ^G/2A/2|B/2A/2^G/2A/2 B/2A/2|G/2F/2=F/2^F/2 G/2F/2|A G/2F/2E/2D/2|C
